X: 14096
T: Friday's Finest
R: jig
M: 6/8
K: Gmajor
|:BdB GFG|AcA F2F|BGD BGD|ABc d2c|
BdB GFG|AcA F2F|GAB cBA|AGF G3:|
|:ege cBc|ded B2G|AFD AFD|GAB d2g|
ege cBc|ded B2G|A2B cBA|AGF G3:|

